images/content/johnson-solids/augmented-triangular-prism.svg

<?xml version="1.0" encoding="UTF-8"?>
<svg xmlns="http://www.w3.org/2000/svg" xmlns:xlink="http://www.w3.org/1999/xlink" width="188.97pt" height="186.93pt" viewBox="0 0 188.97 186.93" version="1.2">
<defs>
<clipPath id="clip1">
  <path d="M 112 0 L 188.917969 0 L 188.917969 138 L 112 138 Z M 112 0 "/>
</clipPath>
<clipPath id="clip2">
  <path d="M 0.0195312 61 L 113 61 L 113 186.859375 L 0.0195312 186.859375 Z M 0.0195312 61 "/>
</clipPath>
<clipPath id="clip3">
  <path d="M 0.0195312 61 L 114 61 L 114 186.859375 L 0.0195312 186.859375 Z M 0.0195312 61 "/>
</clipPath>
<clipPath id="clip4">
  <path d="M 79 61 L 188.917969 61 L 188.917969 186.859375 L 79 186.859375 Z M 79 61 "/>
</clipPath>
<clipPath id="clip5">
  <path d="M 0.0195312 27 L 113 27 L 113 90 L 0.0195312 90 Z M 0.0195312 27 "/>
</clipPath>
<clipPath id="clip6">
  <path d="M 0.0195312 27 L 114 27 L 114 91 L 0.0195312 91 Z M 0.0195312 27 "/>
</clipPath>
<clipPath id="clip7">
  <path d="M 72 137 L 188.917969 137 L 188.917969 186.859375 L 72 186.859375 Z M 72 137 "/>
</clipPath>
<clipPath id="clip8">
  <path d="M 71 136 L 188.917969 136 L 188.917969 186.859375 L 71 186.859375 Z M 71 136 "/>
</clipPath>
<clipPath id="clip9">
  <path d="M 0.0195312 89 L 80 89 L 80 186.859375 L 0.0195312 186.859375 Z M 0.0195312 89 "/>
</clipPath>
<clipPath id="clip10">
  <path d="M 0.0195312 89 L 81 89 L 81 186.859375 L 0.0195312 186.859375 Z M 0.0195312 89 "/>
</clipPath>
<clipPath id="clip11">
  <path d="M 0.0195312 27 L 73 27 L 73 173 L 0.0195312 173 Z M 0.0195312 27 "/>
</clipPath>
<clipPath id="clip12">
  <path d="M 72 0 L 188.917969 0 L 188.917969 173 L 72 173 Z M 72 0 "/>
</clipPath>
<clipPath id="clip13">
  <path d="M 71 0 L 188.917969 0 L 188.917969 173 L 71 173 Z M 71 0 "/>
</clipPath>
</defs>
<g id="surface1">
<g clip-path="url(#clip1)" clip-rule="nonzero">
<path style=" stroke:none;fill-rule:nonzero;fill:rgb(50.354004%,41.55426%,69.734192%);fill-opacity:1;" d="M 112.726562 61.691406 L 171.058594 0.390625 L 188.527344 137.101562 L 112.726562 61.691406 "/>
<path style="fill:none;stroke-width:7.82001;stroke-linecap:round;stroke-linejoin:round;stroke:rgb(13.729858%,12.159729%,12.548828%);stroke-opacity:1;stroke-miterlimit:10;" d="M 1127.483934 1252.154921 L 1711.022684 1865.392287 L 1885.775599 497.770968 Z M 1127.483934 1252.154921 " transform="matrix(0.0999626,0,0,-0.0999626,0.0203743,186.860026)"/>
</g>
<g clip-path="url(#clip2)" clip-rule="nonzero">
<path style=" stroke:none;fill-rule:nonzero;fill:rgb(78.788757%,65.557861%,74.28894%);fill-opacity:1;" d="M 79.929688 186.46875 L 0.410156 89.792969 L 112.726562 61.691406 L 79.929688 186.46875 "/>
</g>
<g clip-path="url(#clip3)" clip-rule="nonzero">
<path style="fill:none;stroke-width:7.82001;stroke-linecap:round;stroke-linejoin:round;stroke:rgb(13.729858%,12.159729%,12.548828%);stroke-opacity:1;stroke-miterlimit:10;" d="M 799.392369 3.914227 L 3.899279 971.034063 L 1127.483934 1252.154921 Z M 799.392369 3.914227 " transform="matrix(0.0999626,0,0,-0.0999626,0.0203743,186.860026)"/>
</g>
<g clip-path="url(#clip4)" clip-rule="nonzero">
<path style=" stroke:none;fill-rule:nonzero;fill:rgb(60.531616%,56.373596%,78.04718%);fill-opacity:1;" d="M 188.527344 137.101562 L 79.929688 186.46875 L 112.726562 61.691406 L 188.527344 137.101562 "/>
<path style="fill:none;stroke-width:7.82001;stroke-linecap:round;stroke-linejoin:round;stroke:rgb(13.729858%,12.159729%,12.548828%);stroke-opacity:1;stroke-miterlimit:10;" d="M 1885.775599 497.770968 L 799.392369 3.914227 L 1127.483934 1252.154921 Z M 1885.775599 497.770968 " transform="matrix(0.0999626,0,0,-0.0999626,0.0203743,186.860026)"/>
</g>
<path style="fill-rule:nonzero;fill:rgb(74.64447%,37.239075%,30.809021%);fill-opacity:1;stroke-width:7.82001;stroke-linecap:round;stroke-linejoin:round;stroke:rgb(13.729858%,12.159729%,12.548828%);stroke-opacity:1;stroke-miterlimit:10;" d="M 508.345922 1594.7441 L 1711.022684 1865.392287 L 1127.483934 1252.154921 " transform="matrix(0.0999626,0,0,-0.0999626,0.0203743,186.860026)"/>
<g clip-path="url(#clip5)" clip-rule="nonzero">
<path style=" stroke:none;fill-rule:nonzero;fill:rgb(74.64447%,37.239075%,30.809021%);fill-opacity:1;" d="M 112.726562 61.691406 L 0.410156 89.792969 L 50.835938 27.445312 "/>
</g>
<g clip-path="url(#clip6)" clip-rule="nonzero">
<path style="fill:none;stroke-width:7.82001;stroke-linecap:round;stroke-linejoin:round;stroke:rgb(13.729858%,12.159729%,12.548828%);stroke-opacity:1;stroke-miterlimit:10;" d="M 1127.483934 1252.154921 L 3.899279 971.034063 L 508.345922 1594.7441 " transform="matrix(0.0999626,0,0,-0.0999626,0.0203743,186.860026)"/>
</g>
<g clip-path="url(#clip7)" clip-rule="nonzero">
<path style=" stroke:none;fill-rule:nonzero;fill:rgb(60.441589%,15.762329%,14.350891%);fill-opacity:1;" d="M 188.527344 137.101562 L 72.324219 172.136719 L 79.929688 186.46875 L 188.527344 137.101562 "/>
</g>
<g clip-path="url(#clip8)" clip-rule="nonzero">
<path style="fill:none;stroke-width:7.82001;stroke-linecap:round;stroke-linejoin:round;stroke:rgb(13.729858%,12.159729%,12.548828%);stroke-opacity:1;stroke-miterlimit:10;" d="M 1885.775599 497.770968 L 723.309202 147.288209 L 799.392369 3.914227 Z M 1885.775599 497.770968 " transform="matrix(0.0999626,0,0,-0.0999626,0.0203743,186.860026)"/>
</g>
<g clip-path="url(#clip9)" clip-rule="nonzero">
<path style=" stroke:none;fill-rule:nonzero;fill:rgb(13.729858%,12.159729%,12.548828%);fill-opacity:1;" d="M 0.410156 89.792969 L 79.929688 186.46875 L 72.324219 172.136719 L 0.410156 89.792969 "/>
</g>
<g clip-path="url(#clip10)" clip-rule="nonzero">
<path style="fill:none;stroke-width:7.82001;stroke-linecap:round;stroke-linejoin:round;stroke:rgb(13.729858%,12.159729%,12.548828%);stroke-opacity:1;stroke-miterlimit:10;" d="M 3.899279 971.034063 L 799.392369 3.914227 L 723.309202 147.288209 Z M 3.899279 971.034063 " transform="matrix(0.0999626,0,0,-0.0999626,0.0203743,186.860026)"/>
</g>
<g clip-path="url(#clip11)" clip-rule="nonzero">
<path style=" stroke:none;fill-rule:nonzero;fill:rgb(45.401001%,36.935425%,67.286682%);fill-opacity:1;" d="M 50.835938 27.445312 L 0.410156 89.792969 L 72.324219 172.136719 L 50.835938 27.445312 "/>
<path style="fill:none;stroke-width:7.82001;stroke-linecap:round;stroke-linejoin:round;stroke:rgb(13.729858%,12.159729%,12.548828%);stroke-opacity:1;stroke-miterlimit:10;" d="M 508.345922 1594.7441 L 3.899279 971.034063 L 723.309202 147.288209 Z M 508.345922 1594.7441 " transform="matrix(0.0999626,0,0,-0.0999626,0.0203743,186.860026)"/>
</g>
<g clip-path="url(#clip12)" clip-rule="nonzero">
<path style=" stroke:none;fill-rule:nonzero;fill:rgb(79.907227%,64.897156%,72.27478%);fill-opacity:1;" d="M 72.324219 172.136719 L 188.527344 137.101562 L 171.058594 0.390625 "/>
</g>
<g clip-path="url(#clip13)" clip-rule="nonzero">
<path style="fill:none;stroke-width:7.82001;stroke-linecap:round;stroke-linejoin:round;stroke:rgb(13.729858%,12.159729%,12.548828%);stroke-opacity:1;stroke-miterlimit:10;" d="M 723.309202 147.288209 L 1885.775599 497.770968 L 1711.022684 1865.392287 " transform="matrix(0.0999626,0,0,-0.0999626,0.0203743,186.860026)"/>
</g>
<path style="fill-rule:nonzero;fill:rgb(79.907227%,64.897156%,72.27478%);fill-opacity:1;stroke-width:7.82001;stroke-linecap:round;stroke-linejoin:round;stroke:rgb(13.729858%,12.159729%,12.548828%);stroke-opacity:1;stroke-miterlimit:10;" d="M 1711.022684 1865.392287 L 508.345922 1594.7441 L 723.309202 147.288209 " transform="matrix(0.0999626,0,0,-0.0999626,0.0203743,186.860026)"/>
</g>
</svg>

<svg xmlns="http://www.w3.org/2000/svg" width="251.96" height="249.24" viewBox="0 0 188.97 186.93" version="1.2"><defs><clipPath id="a"><path d="M112 0h76.918v138H112Zm0 0"/></clipPath><clipPath id="b"><path d="M.02 61H113v125.86H.02Zm0 0"/></clipPath><clipPath id="c"><path d="M.02 61H114v125.86H.02Zm0 0"/></clipPath><clipPath id="d"><path d="M79 61h109.918v125.86H79Zm0 0"/></clipPath><clipPath id="e"><path d="M.02 27H113v63H.02Zm0 0"/></clipPath><clipPath id="f"><path d="M.02 27H114v64H.02Zm0 0"/></clipPath><clipPath id="g"><path d="M72 137h116.918v49.86H72Zm0 0"/></clipPath><clipPath id="h"><path d="M71 136h117.918v50.86H71Zm0 0"/></clipPath><clipPath id="i"><path d="M.02 89H80v97.86H.02Zm0 0"/></clipPath><clipPath id="j"><path d="M.02 89H81v97.86H.02Zm0 0"/></clipPath><clipPath id="k"><path d="M.02 27H73v146H.02Zm0 0"/></clipPath><clipPath id="l"><path d="M72 0h116.918v173H72Zm0 0"/></clipPath><clipPath id="m"><path d="M71 0h117.918v173H71Zm0 0"/></clipPath></defs><g clip-path="url(#a)"><path style="stroke:none;fill-rule:nonzero;fill:#806ab2;fill-opacity:1" d="m112.727 61.691 58.332-61.3 17.468 136.71-75.8-75.41"/><path style="fill:none;stroke-width:7.82001;stroke-linecap:round;stroke-linejoin:round;stroke:#231f20;stroke-opacity:1;stroke-miterlimit:10" d="m1127.484 1252.155 583.539 613.237 174.753-1367.621Zm0 0" transform="matrix(.09996 0 0 -.09996 .02 186.86)"/></g><g clip-path="url(#b)"><path style="stroke:none;fill-rule:nonzero;fill:#c9a7bd;fill-opacity:1" d="M79.93 186.469.41 89.793l112.317-28.102L79.93 186.47"/></g><g clip-path="url(#c)"><path style="fill:none;stroke-width:7.82001;stroke-linecap:round;stroke-linejoin:round;stroke:#231f20;stroke-opacity:1;stroke-miterlimit:10" d="M799.392 3.914 3.9 971.034l1123.585 281.12Zm0 0" transform="matrix(.09996 0 0 -.09996 .02 186.86)"/></g><g clip-path="url(#d)"><path style="stroke:none;fill-rule:nonzero;fill:#9a90c7;fill-opacity:1" d="M188.527 137.102 79.93 186.469 112.727 61.69l75.8 75.41"/><path style="fill:none;stroke-width:7.82001;stroke-linecap:round;stroke-linejoin:round;stroke:#231f20;stroke-opacity:1;stroke-miterlimit:10" d="M1885.776 497.771 799.392 3.914l328.092 1248.24Zm0 0" transform="matrix(.09996 0 0 -.09996 .02 186.86)"/></g><path style="fill-rule:nonzero;fill:#be5f4f;fill-opacity:1;stroke-width:7.82001;stroke-linecap:round;stroke-linejoin:round;stroke:#231f20;stroke-opacity:1;stroke-miterlimit:10" d="m508.346 1594.744 1202.677 270.648-583.54-613.237" transform="matrix(.09996 0 0 -.09996 .02 186.86)"/><g clip-path="url(#e)"><path style="stroke:none;fill-rule:nonzero;fill:#be5f4f;fill-opacity:1" d="M112.727 61.691.41 89.793l50.426-62.348"/></g><g clip-path="url(#f)"><path style="fill:none;stroke-width:7.82001;stroke-linecap:round;stroke-linejoin:round;stroke:#231f20;stroke-opacity:1;stroke-miterlimit:10" d="M1127.484 1252.155 3.899 971.035l504.447 623.71" transform="matrix(.09996 0 0 -.09996 .02 186.86)"/></g><g clip-path="url(#g)"><path style="stroke:none;fill-rule:nonzero;fill:#9a2825;fill-opacity:1" d="M188.527 137.102 72.324 172.137l7.606 14.332 108.597-49.367"/></g><g clip-path="url(#h)"><path style="fill:none;stroke-width:7.82001;stroke-linecap:round;stroke-linejoin:round;stroke:#231f20;stroke-opacity:1;stroke-miterlimit:10" d="M1885.776 497.771 723.309 147.288 799.392 3.914Zm0 0" transform="matrix(.09996 0 0 -.09996 .02 186.86)"/></g><g clip-path="url(#i)"><path style="stroke:none;fill-rule:nonzero;fill:#231f20;fill-opacity:1" d="m.41 89.793 79.52 96.676-7.606-14.332L.41 89.793"/></g><g clip-path="url(#j)"><path style="fill:none;stroke-width:7.82001;stroke-linecap:round;stroke-linejoin:round;stroke:#231f20;stroke-opacity:1;stroke-miterlimit:10" d="M3.9 971.034 799.391 3.914 723.31 147.288Zm0 0" transform="matrix(.09996 0 0 -.09996 .02 186.86)"/></g><g clip-path="url(#k)"><path style="stroke:none;fill-rule:nonzero;fill:#745eac;fill-opacity:1" d="M50.836 27.445.41 89.793l71.914 82.344L50.836 27.445"/><path style="fill:none;stroke-width:7.82001;stroke-linecap:round;stroke-linejoin:round;stroke:#231f20;stroke-opacity:1;stroke-miterlimit:10" d="M508.346 1594.744 3.899 971.034l719.41-823.746Zm0 0" transform="matrix(.09996 0 0 -.09996 .02 186.86)"/></g><g clip-path="url(#l)"><path style="stroke:none;fill-rule:nonzero;fill:#cca5b8;fill-opacity:1" d="m72.324 172.137 116.203-35.035L171.06.39"/></g><g clip-path="url(#m)"><path style="fill:none;stroke-width:7.82001;stroke-linecap:round;stroke-linejoin:round;stroke:#231f20;stroke-opacity:1;stroke-miterlimit:10" d="m723.31 147.288 1162.466 350.483-174.753 1367.621" transform="matrix(.09996 0 0 -.09996 .02 186.86)"/></g><path style="fill-rule:nonzero;fill:#cca5b8;fill-opacity:1;stroke-width:7.82001;stroke-linecap:round;stroke-linejoin:round;stroke:#231f20;stroke-opacity:1;stroke-miterlimit:10" d="M1711.023 1865.392 508.346 1594.744 723.309 147.288" transform="matrix(.09996 0 0 -.09996 .02 186.86)"/></svg>
